packages/foundations/assets/icons/functional/images/layout/list_24.svg

<svg width="24" height="24" viewBox="0 0 24 24" fill="none" xmlns="http://www.w3.org/2000/svg">
<g clip-path="url(#clip0_185_1362)">
<path fill-rule="evenodd" clip-rule="evenodd" d="M10.0065 19H18.9935C19.5455 19 20 18.5739 20 17.9837C20 17.4591 19.5455 17 18.9935 17H10.0065C9.45451 17 9 17.4591 9 17.9837C9 18.5739 9.45451 19 10.0065 19ZM5.00003 19H6.00007C6.58063 19 7 18.5739 7 17.9837C7 17.4591 6.58063 17 6.00007 17H5.00003C4.45159 17 4 17.4591 4 17.9837C4 18.5739 4.45159 19 5.00003 19ZM10.0065 13.0021H18.9935C19.5455 13.0021 20 12.5504 20 12.0021C20 11.4538 19.5455 11.0021 18.9935 11.0021H10.0065C9.45451 11.0021 9 11.4538 9 12.0021C9 12.5504 9.45451 13.0021 10.0065 13.0021ZM5.00003 13.0021H6.00007C6.58063 13.0021 7 12.5504 7 12.0021C7 11.4538 6.58063 11.0021 6.00007 11.0021H5.00003C4.45159 11.0021 4 11.4538 4 12.0021C4 12.5504 4.45159 13.0021 5.00003 13.0021ZM10.0065 7H18.9935C19.5455 7 20 6.57376 20 6.01632C20 5.45899 19.5455 5 18.9935 5H10.0065C9.45451 5 9 5.45899 9 6.01632C9 6.57376 9.45451 7 10.0065 7ZM5.00003 7H6.00007C6.58063 7 7 6.57376 7 6.01632C7 5.45899 6.58063 5 6.00007 5H5.00003C4.45159 5 4 5.45899 4 6.01632C4 6.57376 4.45159 7 5.00003 7Z" fill="#1A1C1F"/>
</g>
<defs>
<clipPath id="clip0_185_1362">
<rect width="24" height="24" fill="white"/>
</clipPath>
</defs>
</svg>

<svg xmlns="http://www.w3.org/2000/svg" width="24" height="24" fill="none"><g clip-path="url(#a)"><path fill="#1A1C1F" fill-rule="evenodd" d="M10.007 19h8.987A.996.996 0 0 0 20 17.984c0-.525-.454-.984-1.006-.984h-8.987C9.455 17 9 17.46 9 17.984A.996.996 0 0 0 10.007 19M5 19h1c.58 0 1-.426 1-1.016A.986.986 0 0 0 6 17H5c-.548 0-1 .46-1 .984A.993.993 0 0 0 5 19m5.007-5.998h8.987c.552 0 1.006-.452 1.006-1s-.454-1-1.006-1h-8.987c-.552 0-1.007.452-1.007 1s.455 1 1.007 1m-5.007 0h1c.58 0 1-.452 1-1s-.42-1-1-1H5c-.548 0-1 .452-1 1s.452 1 1 1M10.007 7h8.987A.99.99 0 0 0 20 6.016C20 5.46 19.546 5 18.994 5h-8.987C9.455 5 9 5.459 9 6.016c0 .558.455.984 1.007.984M5 7h1c.58 0 1-.426 1-.984C7 5.46 6.58 5 6 5H5c-.548 0-1 .459-1 1.016C4 6.574 4.452 7 5 7" clip-rule="evenodd"/></g><defs><clipPath id="a"><path fill="#fff" d="M0 0h24v24H0z"/></clipPath></defs></svg>
